X: 153
T: No_61_Initiation_Song.krn
N: Derived from No_61_Initiation_Song.krn
%%abc-version 2.0
%%abcx-abcm2ps-target-version 5.9.1 (29 Sep 2008)
%%abc-creator hum2abc beta
%%abcx-conversion-date 2019/03/15 08:29:13
%%humdrum-veritas 3092903378
%%humdrum-veritas-data 1146112126
%%linebreak <none>
%%barnumbers 0
L: 1/8
M: 3/4
K: A clef=bass
[K:clef=bass][M:3/4]E2EE CD | 
E4CB, ||  
[M:4/4]A,6A,2 ||  
[M:3/4]E2CB, A,B, | 
A,4E,E, ||  
[M:4/4]C,6C,2 ||  
[M:3/4]E,2E,E, C,D, | 
E,4E,E, ||  
[M:4/4]C,4C,2C,2 ||  
[M:3/4]EE EE CD | 
E4CB, ||  
[M:4/4]A,6A,2 ||  
[M:3/4]E2CB, A,B, | 
A,4E,E, ||  
[M:4/4]C,6C,2 ||  
[M:3/4]E,2E,E, C,D, | 
E,4E,E, ||  
[M:4/4]C,6C,2 |]  



